app/component-library/components/Icons/Icon/assets/minus-square.svg

<svg width="24" height="24" viewBox="0 0 24 24" fill="none" xmlns="http://www.w3.org/2000/svg">
<path d="M16.4778 2H8.09366C4.45184 2 2.28076 4.17 2.28076 7.81V16.18C2.28076 19.83 4.45184 22 8.09366 22H16.4678C20.1096 22 22.2807 19.83 22.2807 16.19V7.81C22.2907 4.17 20.1197 2 16.4778 2ZM16.2877 12.75H8.28375C7.87355 12.75 7.53338 12.41 7.53338 12C7.53338 11.59 7.87355 11.25 8.28375 11.25H16.2877C16.6979 11.25 17.0381 11.59 17.0381 12C17.0381 12.41 16.6979 12.75 16.2877 12.75Z" fill="currentColor"/>
</svg>

<svg xmlns="http://www.w3.org/2000/svg" width="24" height="24" viewBox="0 0 24 24" fill="none"><path d="M16.478 2H8.094C4.452 2 2.28 4.17 2.28 7.81v8.37c0 3.65 2.17 5.82 5.813 5.82h8.374c3.642 0 5.813-2.17 5.813-5.81V7.81C22.29 4.17 20.12 2 16.478 2zm-.19 10.75H8.284c-.41 0-.75-.34-.75-.75s.34-.75.75-.75h8.004c.41 0 .75.34.75.75s-.34.75-.75.75z" fill="currentColor"/></svg>
